icons/bell-filled.svg

<svg width="24" height="24" viewBox="0 0 24 24" fill="none" xmlns="http://www.w3.org/2000/svg">
<path d="M18 16V9.961C17.9998 8.72465 17.6145 7.51906 16.8976 6.51172C16.1808 5.50439 15.168 4.74533 14 4.34V4C14 3.46957 13.7893 2.96086 13.4142 2.58579C13.0391 2.21071 12.5304 2 12 2C11.4696 2 10.9609 2.21071 10.5858 2.58579C10.2107 2.96086 10 3.46957 10 4V4.362C8.82955 4.78076 7.81707 5.55092 7.10107 6.56711C6.38506 7.5833 6.0005 8.7959 6 10.039V16H5C4.333 16 4 16.333 4 17C4 17.667 4.333 18 5 18H19C19.667 18 20 17.667 20 17C20 16.333 19.667 16 19 16H18ZM10 20C10 20.5304 10.2107 21.0391 10.5858 21.4142C10.9609 21.7893 11.4696 22 12 22C12.5304 22 13.0391 21.7893 13.4142 21.4142C13.7893 21.0391 14 20.5304 14 20H10Z" fill="#3A3A47"/>
</svg>

<svg xmlns="http://www.w3.org/2000/svg" width="24" height="24" viewBox="0 0 24 24">
    <path fill="#3A3A47" fill-rule="evenodd" d="M18 16V9.961a5.951 5.951 0 0 0-4-5.621V4a2 2 0 0 0-4 0v.362a6.032 6.032 0 0 0-4 5.677V16H5c-.667 0-1 .333-1 1s.333 1 1 1h14c.667 0 1-.333 1-1s-.333-1-1-1h-1zm-8 4a2 2 0 0 0 4 0h-4z"/>
</svg>
